X: 455
T: Remembrance. (Mir aus den augen.)	 Op. 74
C: Fryderyk Chopin
%%abc-version 2.0
%%abcx-abcm2ps-target-version 5.9.1 (29 Sep 2008)
%%abc-creator hum2abc beta
%%abcx-conversion-date 2021/10/03 11:23:45
%%abc-edited-by Emilia Ziętek
%%abc-edited-by Wojciech Jakubiak-Danek
%%abcx-initial-encoding-date 2020-02-10
%%humdrum-veritas 1555966024
%%humdrum-veritas-data 617577299
%%linebreak <none>
%%barnumbers 0
L: 1/8
M: 3/4
N: Derived from 074-1c-LW-006.krn
P: 17 | POLISH SONGS | BY | WITWICKI, ZALESKI, MICKIEWICZ, ETC, | FOR | A SOPRANO OR TENOR VOICE | WITH ACCOMPANIMENT FOR THE | Pianoforte
Q: "Andantino Espressivo." 1/4=72
V: 1 clef=treble
V: 2 clef=treble
V: 3 clef=bass
K: C
[V:1] z6 | 
[V:2] e2f3e & z2z2[^c2_B2] | 
[V:3] E2F3E & z2z2G,2 | 
[V:1] z6 | 
[V:2] d=cB2z2 & A4x2 | 
[V:3] DCB,2z2 & F,4z2 | 
[V:1] z6 | 
[V:2] dcB4 & ^G6 | 
[V:3] DCB,4 & E,4^D,2- | 
[V:1] z6 | 
[V:2] c4B2 & !accent!=GFE2D2 | 
[V:3] A,4^G,2 & D,2E,4 | 
[V:1] A4E3/ E/ | 
[V:2] [A4E4C4][A2E2C2] | 
[V:3] [A,4E,4A,,4][A,2A,,2] | 
[V:1] F2E2z2 | 
[V:2] [A2F2D2][A2E2C2]z2 | 
[V:3] [A,2D,2][A,2A,,2]z2 | 
[V:1] A4{/BA} ^G A | 
[V:2] [AC]A,[AD]B,[A^D]C | 
[V:3] [F,6F,,6] | 
[V:1] c2B2z2 | 
[V:2] [AE]C[^GE]B,[FD][EB,] | 
[V:3] [E,4E,,4]z2 | 
[V:1] A4E3/ E/ | 
[V:2] [A4E4C4][A2E2C2] | 
[V:3] [A,4E,4A,,4][A,2A,,2] | 
[V:1] F2E2z A | 
[V:2] [A2F2C2A,2][A4E4A,4] | 
[V:3] [F,2F,,2][C,4-C,,4] | 
[V:1] A2>A2 {/BA} ^G A | 
[V:2] {/A,} [A^D]A,[AD]B,[A^FD]B, | 
[V:3] C,2B,,4 | 
[V:1] c2B2z2 | 
[V:2] [^GE]B,[GE]B,[=GF]B, | 
[V:3] E,4D,2 | 
[V:1] c4G3/ G/ | 
[V:2] [G4E4C4G,4][E2C2G,2] | 
[V:3] [C,4C,,4][C,2C,,2] | 
[V:1] !accent!_A2G2z G | 
[V:2] [F2_D2_A,2][F2=D2G,2][GFD]G, | 
[V:3] [B,,2B,,,2][B,,4B,,,4] | 
[V:1] GcBc d3/ c/ | 
[V:2] [cGE]_B,[cGE]B,[cGE]B, | 
[V:3] [C,6C,,6] | 
[V:1] c4d2 | 
[V:2] [cF]A,[AF]CAB, | 
[V:3] [F,6F,,6] | 
[V:1] e4B3/ B/ | 
[V:2] [^GD]B,[GD]B,[GD]B, | 
[V:3] [E,6E,,6] | 
[V:1] !accent!c4A2 | 
[V:2] [AEC]A,[AEC]A,[AEC]A, | 
[V:3] A,,4C,D, | 
[V:1] ^G> Bf3e | 
[V:2] [^GD]B,[GD]B,[GD]B, | 
[V:3] [E,6E,,6]- | 
[V:1] d2c2z2 | 
[V:2] [AEC]A,[AEC]A,[AEC]A, | 
[V:3] [E,6E,,6] | 
[V:1] e4B3/ B/ | 
[V:2] [^GDB,]^G,[GEB,]G,[GEB,]G, | 
[V:3] [E,6E,,6] | 
[V:1] c4A2 | 
[V:2] [^F^D]A,[FD]A,[=F=D]A, | 
[V:3] [E,6E,,6] | 
[V:1] E> Ec3B | 
[V:2] [EC]A,[FDB,]A,[EDB,]^G, | 
[V:3] [E,6E,,6] | 
[V:1] B2A2z2 | 
[V:2] [CA,]EAce2- | 
[V:3] [E,2A,,2]z2z2[K:clef=treble] | 
[V:1] z6 | 
[V:2] eac'^d'e'2 | 
[V:3] [c2E2A,2]z2z2 | 
[V:1] z6 | 
[V:2] c'aec'b2 | 
[V:3] z2z2[d2^G2E2] | 
[V:1] z6 | 
[V:2] eac'^d'e'2 | 
[V:3] [c2A2]z2z2 | 
[V:1] z6 | 
[V:2] c'aec'b2 | 
[V:3] z2z2[d2^G2E2] | 
[V:1] z6 | 
[V:2] eac'^d'e'2 | 
[V:3] [c2A2]z2z2 | 
[V:1] z6 | 
[V:2] c'aecA2 | 
[V:3] z6[K:clef=bass] | 
[V:1] z6 | 
[V:2] [E6C6A,6] | 
[V:3] [A,,6A,,,6] | 
[V:1] z6 ]|:  
[V:2] !accent![G6D6G,6] ]|:  
[V:3] [B,,6B,,,6] ]|:  
[V:1] [M:2/4]G2c B [I:setbarnb 34]| 
[V:2] [M:2/4][GEC]G,[GE]C | 
[V:3] [M:2/4]C,4 | 
[V:1] A2B c | 
[V:2] [AF]C[AF]C | 
[V:3] [F,4F,,4] | 
[V:1] G>A G A | 
[V:2] [GFD]G,[GFD]G, | 
[V:3] B,,4 | 
[V:1] G>F E z | 
[V:2] [GEC]G,[GEC]G, | 
[V:3] C,4 | 
[V:1] G2A3/ A/ | 
[V:2] [GEC]G,[^FD]A, | 
[V:3] C,4 | 
[V:1] B2B c | 
[V:2] [B^F^D]B,[BGE]B, | 
[V:3] B,,2E,2 | 
[V:1] ed A3/ B/ | 
[V:2] [B2G2][A2^F2] & B,DCD | 
[V:3] {/D,,}D,4 | 
[V:1] A2G z | 
[V:2] G2z2 & B,DB,D | 
[V:3] [G,4G,,4] | 
[V:1] d2e3/ d/ | 
[V:2] [BG]D[BG]D | 
[V:3] [G,4G,,4] | 
[V:1] A2d d | 
[V:2] [cA^F]D[cAF]D | 
[V:3] [G,4G,,4] | 
[V:1] ^c> d e3/ d/ | 
[V:2] [BG=F]D[BG]D | 
[V:3] [G,2G,,2][F,2F,,2] | 
[V:1] G2{/BA}G2 | 
[V:2] [cG]C[GFB,]G, | 
[V:3] [E,2E,,2][D,2D,,2] | 
[V:1] G2c3/ d/ | 
[V:2] [GEC]GgG | 
[V:3] G,4 & C,2G,,2 | 
[V:1] e2f3/ e/ | 
[V:2] [GEC]GgG | 
[V:3] G,4 & C,2G,,2 | 
[V:1] ed B A | 
[V:2] [GFB,]GgG | 
[V:3] G,4 & D,2G,,2 | 
[V:1] A3G | 
[V:2] [GFB,]GgG | 
[V:3] G,4 & D,2G,,2 | 
[V:1] G2c3/ d/ | 
[V:2] [GEC]GgG | 
[V:3] [G,2C,2]z2 | 
[V:1] e2e d | 
[V:2] ze2=g & x ^GAB | 
[V:3] z [EB,E,][ECA,][GDG,] | 
[V:1] G2A B & G Gx2 | 
[V:2] [ec] [GE][^F^D][=F=D] | 
[V:3] [GC] z[G,2G,,2] | 
[V:1] d cz2 | 
[V:2] [cEC] c'ea | 
[V:3] [G,C,] zz2[K:clef=treble] | 
[V:1] z4 | 
[V:2] [^fc][gB][e_B][=fA] | 
[V:3] AGCF | 
[V:1] z4 | 
[V:2] [^dA][e^G][c=G][=d^F] | 
[V:3] ^FEA,D[K:clef=bass] | 
[V:1] z4 |[1 
[V:2] Bc2[BF] & =FED2 | 
[V:3] ^G,A,F,=G, | 
[V:1] z4 :|][2 
[V:2] [cE]G,[GEC]G, :|]  
[V:3] [C,2C,,2]z2 :|]  
[V:1] z4 |]  
[V:2] [c4E4] |]  
[V:3] [G,4C,4] |]
